icons/fill-new-drink-coffee-cup.svg

<svg xmlns="http://www.w3.org/2000/svg" width="32px" height="32px" viewBox="0 0 32 32" version="1.1">
    <title>fill-new-drink-coffee-cup</title>
    <g id="fill-new-drink-coffee-cup" stroke-width="1" fill-rule="evenodd">
        <path d="M24,26 C24.5522847,26 25,26.4477153 25,27 C25,27.5522847 24.5522847,28 24,28 L4,28 C3.44771525,28 3,27.5522847 3,27 C3,26.4477153 3.44771525,26 4,26 L24,26 Z M24,4 C24.5522847,4 25,4.44771525 25,5 L25,6 L25.2249383,6.00413847 C28.4344251,6.12242824 31,8.76160306 31,12 C31,15.3137085 28.3137085,18 25,18 L24.7494184,17.9943445 C23.8633013,21.4476682 20.7297152,24 17,24 L11,24 C6.581722,24 3,20.418278 3,16 L3,5 C3,4.44771525 3.44771525,4 4,4 L24,4 Z M25.0010041,8.00000012 L25,16.0000001 C27.209139,16.0000001 29,14.209139 29,12.0000001 C29,9.79119572 27.2096816,8.00054269 25.0010041,8.00000012 Z" id="&#24418;&#29366;" fill-rule="nonzero" />
    </g>
</svg>

<svg xmlns="http://www.w3.org/2000/svg" viewBox="0 0 32 32"><path fill="currentColor" d="M24 26a1 1 0 0 1 0 2H4a1 1 0 0 1 0-2zm0-22a1 1 0 0 1 1 1v1l.225.004A6 6 0 0 1 25 18l-.25-.006A8.003 8.003 0 0 1 17 24h-6a8 8 0 0 1-8-8V5a1 1 0 0 1 1-1zm1.001 4L25 16a4 4 0 0 0 .001-8"/></svg>
